public/assets/icons/call-icon.svg

<svg width="24" height="24" viewBox="0 0 24 24" fill="none" xmlns="http://www.w3.org/2000/svg">
<path d="M19.2222 15.2681L16.6822 14.9781C16.0722 14.9081 15.4722 15.1181 15.0422 15.5481L13.2022 17.3881C10.3722 15.9481 8.05223 13.6381 6.61223 10.7981L8.46223 8.94807C8.89223 8.51807 9.10223 7.91807 9.03223 7.30807L8.74223 4.78807C8.62223 3.77807 7.77223 3.01807 6.75223 3.01807H5.02223C3.89223 3.01807 2.95223 3.95807 3.02223 5.08807C3.55223 13.6281 10.3822 20.4481 18.9122 20.9781C20.0422 21.0481 20.9822 20.1081 20.9822 18.9781V17.2481C20.9922 16.2381 20.2322 15.3881 19.2222 15.2681Z" fill="#FAFAFA"/>
</svg>

<svg xmlns="http://www.w3.org/2000/svg" width="24" height="24" fill="none" xmlns:v="https://vecta.io/nano"><path d="M19.222 15.268l-2.54-.29a1.99 1.99 0 0 0-1.64.57l-1.84 1.84c-2.83-1.44-5.15-3.75-6.59-6.59l1.85-1.85a1.99 1.99 0 0 0 .57-1.64l-.29-2.52a2 2 0 0 0-1.99-1.77h-1.73c-1.13 0-2.07.94-2 2.07.53 8.54 7.36 15.36 15.89 15.89 1.13.07 2.07-.87 2.07-2v-1.73c.01-1.01-.75-1.86-1.76-1.98z" fill="#fafafa"/></svg>
